!!!COM: Bach, Johann Sebastian
!!!OPR: Das wohltemperirte Clavier, Band II
!!!XEN: Well-Tempered Clavier, Volume II
!!!OTL: Prelude in B Minor
!!!OMV: Prelude XXIV
!!!SCT: BWV 893
!!!SCA: Thematisch-systematisches Verzeichnis der musikalischen Werke Johann Sebastian Bach: Bach-Werke-Verzeichnis (Schmieder)
!!!YOR: Bach Gesellschaft Edition xiv
!!!EED: Walter Hewlett
!!!ENC: Walter Hewlett
!!!CDT: 1685/3//-1750/7/28/
!!!OCY: Deutschland
!!!YEC: Copyright (c) 1994, 2000 Center for Computer Assisted Research in the Humanities
!!!YEM: Rights to all derivative editions reserved
!!!YEM: Refer to licensing agreement for further details
!!!YEN: United States of America
**kern
*I:
*clefG6
*k[f#c#]
*b:
*M4/4
! Allegro.
=1-
*^
8d/L	4BB/
8f#/	.
8B/	4D\
8c#/J	.
8d/L	[4F#\
8f#/	.
8B/	16F#\LL]
.	16G\
8d/J	16F#\
.	16E#\JJ
=2	=2
8c#/L	4F#\
8f#/	.
16g/L	4AA#/
16f#/	.
16e#/	.
16f#/JJ	.
8a#/L	4C#/
8f#/	.
8cc#/	4F#\
8en/J	.
=3	=3
8d/L	4BB/
8f#/	.
8B/	4D\
8c#/J	.
8d/L	[4F#\
8f#/	.
8B/	16F#\LL]
.	16G\
8d/J	16F#\
.	16E#\JJ
=4	=4
8c#/L	4F#\
8f#/	.
8c#/	4FF#/
8A#/J	.
8F#/	8r
8r	8En\L
4r	8D\
.	8C#\J
=5	=5
4r	8D\L
.	8F#\
4dd\	8BB\
.	8C#\J
4b\	8D\L
.	8F#\
4f#/	8BB\
.	8D\J
=6	=6
4r	8C#\L
.	8F#\
4ee\	16G\L
.	16F#\
.	16E#\
.	16F#\JJ
4cc#\	8A#\L
.	8F#\
4f#/	8c#\
.	8En\J
=7	=7
4r	8D\L
.	8F#\
[4ff#\	8BB\
.	8C#\J
8ff#\L]	8D\L
16ee\L	8F#\
16dd\	.
16ee\	8BB\
16dd\	.
16cc#\	8D\J
16b\JJ	.
=8	=8
(4b\	8C#/L
.	8F#/
4a#/)	8C#/
.	8AA#/J
8r	4FF#/
16e/LL	.
16d/	.
16c#/	4A#\
16d/J	.
8e/J	.
=9	=9
8d\L	4BB/
16b\L	.
16cc#\	.
16dd\	4B\
16cc#\J	.
[8b\J	.
8b\]	4c#\
4ff#\	.
.	4d#\
[8an/	.
=10	=10
8a/L]	4e\
16b/L	.
16a/	.
16g#/	4E\
16a/J	.
[8b/J	.
8b/]	4F#\
4d/	.
.	4G#\
8b/	.
=11	=11
8c#/L	4AA/
16a/L	.
16b/	.
16cc#/	4A\
16b/J	.
[8a/J	.
8a/]	4B\
4ee\	.
.	4c#\
[8gn/	.
=12	=12
8g/L]	4d\
16a/L	.
16g/	.
16f#/	4D\
16g/J	.
[8a/J	.
8a/]	4E\
4c#/	.
.	4F#\
8a/	.
=13	=13
8B/	4GG/
4f#/	.
.	4BB/
[8a/	.
8a/L]	4D\
16g/L	.
16f#/	.
16g/	4E\
16f#/	.
16e/	.
16d/JJ	.
=14	=14
8c#/	4AA/
4g/	.
.	4C#/
[8b/	.
8b/L]	4E\
16a/L	.
16g/	.
16a/	4F#\
16g/	.
16f#/	.
16e/JJ	.
=15	=15
8d/	4BB/
4a/	.
.	4D\
[8ccn/	.
8cc/L]	4F#\
16b/L	.
16a/	.
16b/	4G\
16a/	.
16g/	.
16f#/JJ	.
=16	=16
8e/	4C#/
4b\	.
.	4E\
[8dd\	.
8dd\L]	4G\
16cc#\L	.
16b\	.
16cc#\	4A\
16b\	.
16a\	.
16g\JJ	.
=17	=17
8f#/L	4D\
8a/	.
8d/	4F#\
8e/J	.
8f#/L	[4A\
8a/	.
8d/	16A\LL]
.	16B\
8f#/J	16A\
.	16G#\JJ
=18	=18
8e/L	4A\
8a/	.
16b/L	4C#/
16a/	.
16g#/	.
16a/JJ	.
8cc#/L	4E\
8a/	.
8ee/	4A\
8gn/J	.
=19	=19
8f#/L	4D\
8a/	.
8d/	4F#\
8e/J	.
8f#/L	[4A\
8a/	.
8d/	16A\LL]
.	16B\
8f#/J	16A\
.	16G#\JJ
=20	=20
8e/L	4A\
8a/	.
8e/	4AA/
8c#/J	.
8A/	8r
8r	8Gn\L
4r	8F#\
.	8E\J
=21	=21
4r	8F#\L
.	8A\
4a/	8D\
.	8E\J
16b/LL	8F#\L
16a/	.
16g#/	8A\
16a/JJ	.
4ff#\	8D\
.	8F#\J
=22	=22
4r	8E\L
.	8A\
4a/	16B\L
.	16A\
.	16G#\
.	16A\JJ
16b/LL	8c#\L
16a/	.
16g#/	8A\
16a/JJ	.
4ggn\	8e\
.	8Gn\J
=23	=23
4r	8F#\L
.	8A\
4a/	8D\
.	8E\J
16b/LL	8F#\L
16a/	.
16g#/	8A\
16a/JJ	.
8aa\L	8D\
8dd\J	8F#\J
=24	=24
4dd\	8E\L
.	8A\
[4cc#\	8E\
.	8C#\J
16cc#\LL]	8AA\L
16b\	.
16cc#\	8A\
16dd#\	.
16ee\	8G\
16dd#\	.
16cc#\	8F#\J
16dd#\JJ	.
=25	=25
8ee\L	8G\L
8gg\	8B\
8b\	8E\
8dd#\J	8F#\J
8ee\L	8G\L
8gg\	8B\
8b\	8E\
8ee\J	8G\J
=26	=26
(4ee\	8F#\L
.	8B\
8dd#\L)	16cn\L
.	16B\
8ff#\J	16A#\
.	16B\JJ
(4b\	8d#\L
.	8B\
8a\L)	8f#\
8ff#\J	8An\J
=27	=27
16ff#\LL	8G\L
16ee\J	.
8dd#\	8B\
8ee\	8E\
8a\J	8F#\J
(4a\	8G\L
.	8B\
8g\L)	8E\
8ee\J	8G\J
=28	=28
8ee\L	8F#\L
8dd#\J	8B\
[4aa\	8F#\
.	8D#\J
16aa\LL]	4BB/
16gg\	.
16ff#\	.
16ee\	.
16dd#\	4r
16cc#\	.
16b\	.
16a\JJ	.
=29	=29
8g/L	4r
8b/	.
8e/	4G\
8f#/J	.
8g/L	4E\
8b/	.
8e/	4BB/
8g/J	.
=30	=30
8f#/L	4r
8b/	.
16ccn/L	4A\
16b/	.
16a#/	.
16b/JJ	.
8dd#\L	4F#\
8b\	.
8ff#\	4BB/
8an\J	.
=31	=31
8g/L	4r
8b/	.
8e/	[4BM\
8f#/J	.
8g/L	8B\L]
8b/	16A\L
.	16G\
8e/	16A\
.	16G\
8g/J	16F#\
.	16E\JJ
=32	=32
8f#/L	(4E\
8b/	.
8f#/	4D#\)
8d#/J	.
4B/	8r
.	16A\LL
.	16G\
4dd#\	16F#\
.	16G\J
.	8A\J
=33	=33
4ee/	8G/L
.	16e\L
.	16f#\
4b/	16g\
.	16f#\J
.	[8e\J
16gg/LL	8e\]
16ff#/	.
16ee/	4b\
16ff#/J	.
8gg/	.
8b/J	[8dn\
=34	=34
8aT/L	8d\L]
8g#/	16e\L
.	16d\
8a/	16c#\
.	16d\J
8cc#/J	[8e\J
8cc#/L	8e\]
8ee/	4Gn/
8aa/	.
8cc#/J	8e\
=35	=35
4dd/	8F#/L
.	16d\L
.	16e\
4a/	16f#\
.	16e\J
.	[8d\J
16ff#/LL	8d\]
16ee/	.
16dd/	4a\
16ee/J	.
8ff#/	.
8a/J	[8cn\
=36	=36
8gT/L	8c\L]
8f#/	16d\L
.	16cn\
8g/	16B\
.	16c\J
8b/J	[8d\J
8b/L	8d\]
8dd/	4F#/
8gg/	.
8b/J	8d\
=37	=37
8cc#\	4E/
4gg\	.
.	4D/
8ff#\	.
8a#/	4C#/
4ee\	.
.	[4BB/
8dd\	.
=38	=38
4e#/	8BB/]
.	4d\
4f#/	.
.	8c#\
4g#/	8E#\
.	4B\
4a/	.
.	8A\
=39	=39
4b\	8D\
.	4G#\
4cc#\	.
.	8F#\
8dd\	4BB/
4e#/	.
.	4B\
8f#/	.
=40	=40
8g#/	4E#\
4B/	.
.	4G#\
4d/	.
.	4C#/
4c#/	.
.	4E#\
8B/	.
=41	=41
8A/L	4FF#/
8c#/	.
8F#/	4AA/
8G#/J	.
8A/L	[4C#/
8c#/	.
8F#/	16C#/LL]
.	16D/
8A/J	16C#/
.	16BB#/JJ
=42	=42
8G#/L	4C#/
8c#/	.
16d/L	4EE#/
16c#/	.
16B#/	.
16c#/JJ	.
8e#/L	4GG#/
8c#/	.
8g#/	4C#/
8Bn/J	.
=43	=43
4A/	8FF#/L
.	8C#/
4c#/	8F#/
.	8G#/J
4f#/	8A\L
.	8c#\
4a/	8F#\
.	8A\J
=44	=44
4e#/	8G#\L
.	8c#\
4g#/	16d\L
.	16c#\
.	16B#\
.	16c#\JJ
4b\	8e#\L
.	8c#\
4dd\	8g#\
.	8Bn\J
=45	=45
8cc#/L	4A\
16f#/L	.
16g#/	.
16a/	4F#\
16g#/J	.
[8f#/J	.
8f#/]	4G#\
4cc#\	.
.	4A#\
[8e/	.
=46	=46
8e/L]	4B\
16f#/L	.
16e/	.
16d/	4BB/
16e/J	.
[8f#/J	.
8f#/]	4C#/
4A/	.
.	4D#/
8f#/	.
=47	=47
8G/L	4EE/
16e/L	.
16f#/	.
16g/	4E\
16f#/J	.
[8e/J	.
8e/]	4F#\
4b/	.
.	4G\
[8d/	.
=48	=48
8d/L]	4A\
16e/L	.
16d/	.
16c#/	4AA/
16d/J	.
[8e/J	.
8e/]	4BB/
4G/	.
.	4C#/
8e/	.
=49	=49
8F#/	4DD/
4c#/	.
.	4FF#/
[8e/	.
8e/L]	4AA/
16d/L	.
16c#/	.
16d/	4D/
16c#/	.
16B/	.
16A#/JJ	.
=50	=50
8B/	4GG/
4f#/	.
.	4BB/
[8a/	.
8a/L]	4D\
16g/L	.
16f#/	.
16g/	4G\
16f#/	.
16e/	.
16d/JJ	.
=51	=51
8e/	4C#/
4b\	.
.	4E\
[8dd\	.
8dd\L]	4G\
16cc#\L	.
16b\	.
16cc#\	4c#\
16b\	.
16a#\	.
16g#\JJ	.
=52	=52
8a#/	4F#\
4ee\	.
.	4A#\
[8gg\	.
8gg\L]	4c#\
16ff#\L	.
16ee\	.
16ff#\	4f#\
16ee\	.
16dd\	.
16cc#\JJ	.
=53	=53
8dd\	4B\
4a#/	.
.	4g\
8b\	.
8cc#\L	8An\L
8dd#\	8g\
16ee\L	8f#\
16dd#\	.
16cc#\	8A\J
16dd#\JJ	.
=54	=54
8ee\	4G\
4a#/	.
.	4e\
8b\	.
8ddn\	8F#\L
4a#/	8e\
.	8d\
8b\	8F#\J
=55	=55
(16gg\LL	8E\L
16ff#\JJ	.
4ee\)	8d\
.	8cn\
[8ee\	8E\J
16ee\LL]	8D\L
16ff#\	.
16ee\	8cn\
16dd#\J	.
8ee\	8B\
[8ee\J	8D\J
=56	=56
*^	*
16ee\LL]	2ryy	8C#\L
16a\	.	.
16g\	.	8B\
16f#\J	.	.
8g\	.	8A#\
[8ee\J	.	8C#\J
8ee\]	8ryy	8BB\L
4g/	4e\	8A#\
.	.	8B\
[8g/	[8e\	8BB\J
=57	=57	=57
8g/L]	2e\]	2AA#;/
16f#/L	.	.
16dd/JJ	.	.
! (8ddP/	!	!
4cc#;p/)	.	.
8r	2ryy	4r
16e/LL	.	.
16f#/	.	.
16g/	.	4A#\
16f#/J	.	.
8e/J	.	.
=58	=58	=58
*v	*v	*
(8d/L	4B\
8f#/	.
8a#/	4G\
8b/J)	.
(8dd\L	4E\
8cc#\	.
8b\	4F#\
8a#\J)	.
=59	=59
4b\	8D\L
.	8F#\
4f#/	8BB\
.	8C#\J
16g/LL	8D\L
16f#/	.
16e#/	8F#\
16f#/JJ	.
4dd\	8BB\
.	8D\J
=60	=60
4r	8C#\L
.	8F#\
4f#/	16G\L
.	16F#\
.	16E#\
.	16F#\JJ
16g/LL	8A#\L
16f#/	.
16e#/	8F#\
16f#/JJ	.
4een\	8c#\
.	8En\J
=61	=61
4r	8D\L
.	8F#\
4f#/	8BB\
.	8C#\J
16g/LL	8D\L
16f#/	.
16e#/	8F#\
16f#/JJ	.
8ff#\L	8BB\
8a\J	8C#\J
=62	=62
*^	*
(4a/	2e\ 2B\	4D\
4g#/)	.	4DD/
8r	2ryy	4r
16g#/LL	.	.
16a#/	.	.
16b/	.	4D\
16cc#/	.	.
16dd/	.	.
16ee/JJ	.	.
=63	=63	=63
(4b/	2gn\ 2e\	4C#/
4a#/)	.	4c#\
8r	2ryy	8r
16a#/LL	.	16c#\LL
16b/	.	16d\
16cc#/	.	16e\
16b/J	.	16d\J
8a#/J	.	8c#\J
=64	=64	=64
*^	*	*
4ee#/	4dd\ 4b\	4g#/	4B\
4ff#/	4cc#\ 4f#\	4c#/	4A#\
2r	2r	2ryy	8r
.	.	.	16F#\LL
.	.	.	16G#\
.	.	.	16A#\
.	.	.	16B\J
.	.	.	8c#\J
=65	=65	=65	=65
*v	*v	*	*
8r	2ryy	4D\
16b/LL	.	.
16a/	.	.
16g/	.	4E\
16f#/J	.	.
8e/J	.	.
8r	4d\	4F#\
4b/	.	.
.	4e\ 4c#\	4FF#/
8a#/	.	.
=66	=66	=66
1b;/	1f#\ 1d\ 1B\	1BB;/
==|!	==|!	==|!
*-	*-	*-
!!!RWG: Appoggiaturas of spine '' need manual editing in measures: 57
!!!RWG: Key is interpreted using the Humdrum key tool.
!!!AFT: stage2
!!!END: 1994/02/18/
!!format changes:
!!content changes:
!!public access: complete
!!!KEY: 793837226
!!!EMD: Converted from MuseData to Humdrum Dec 19, 2000, by Andreas Kornstaedt using muse2kern.
